icons/circle/48/gnome-power-manager.svg

<svg xmlns="http://www.w3.org/2000/svg" viewBox="0 0 48 48">
 <defs>
  <linearGradient id="linearGradient3764" x1="1" x2="47" gradientUnits="userSpaceOnUse" gradientTransform="matrix(0,-1,1,0,-1.5e-6,47.999998)">
   <stop style="stop-color:#46baa7;stop-opacity:1"/>
   <stop offset="1" style="stop-color:#55bfae;stop-opacity:1"/>
  </linearGradient>
 </defs>
 <g>
  <path d="m 36.31 5 c 5.859 4.062 9.688 10.831 9.688 18.5 c 0 12.426 -10.07 22.5 -22.5 22.5 c -7.669 0 -14.438 -3.828 -18.5 -9.688 c 1.037 1.822 2.306 3.499 3.781 4.969 c 4.085 3.712 9.514 5.969 15.469 5.969 c 12.703 0 23 -10.298 23 -23 c 0 -5.954 -2.256 -11.384 -5.969 -15.469 c -1.469 -1.475 -3.147 -2.744 -4.969 -3.781 z m 4.969 3.781 c 3.854 4.113 6.219 9.637 6.219 15.719 c 0 12.703 -10.297 23 -23 23 c -6.081 0 -11.606 -2.364 -15.719 -6.219 c 4.16 4.144 9.883 6.719 16.219 6.719 c 12.703 0 23 -10.298 23 -23 c 0 -6.335 -2.575 -12.06 -6.719 -16.219 z" style="opacity:0.05"/>
  <path d="m 41.28 8.781 c 3.712 4.085 5.969 9.514 5.969 15.469 c 0 12.703 -10.297 23 -23 23 c -5.954 0 -11.384 -2.256 -15.469 -5.969 c 4.113 3.854 9.637 6.219 15.719 6.219 c 12.703 0 23 -10.298 23 -23 c 0 -6.081 -2.364 -11.606 -6.219 -15.719 z" style="opacity:0.1"/>
  <path d="m 31.25 2.375 c 8.615 3.154 14.75 11.417 14.75 21.13 c 0 12.426 -10.07 22.5 -22.5 22.5 c -9.708 0 -17.971 -6.135 -21.12 -14.75 a 23 23 0 0 0 44.875 -7 a 23 23 0 0 0 -16 -21.875 z" style="opacity:0.2"/>
 </g>
 <g>
  <path d="m 24 1 c 12.703 0 23 10.297 23 23 c 0 12.703 -10.297 23 -23 23 -12.703 0 -23 -10.297 -23 -23 0 -12.703 10.297 -23 23 -23 z" style="fill:url(#linearGradient3764);fill-opacity:1"/>
 </g>
 <g>
  <path d="m 40.03 7.531 c 3.712 4.084 5.969 9.514 5.969 15.469 0 12.703 -10.297 23 -23 23 c -5.954 0 -11.384 -2.256 -15.469 -5.969 4.178 4.291 10.01 6.969 16.469 6.969 c 12.703 0 23 -10.298 23 -23 0 -6.462 -2.677 -12.291 -6.969 -16.469 z" style="opacity:0.1"/>
 </g>
 <g transform="matrix(3.543307,0,0,3.543307,2.7261596e-8,0.00195287)">
  <path d="m 20.998 7.998 c -0.554 0 -1 0.444 -1 0.998 l 0 2.01 -2.199 0 c -1.558 0 -2.795 1.324 -2.795 2.879 l 0 24.24 c 0 1.555 1.237 2.879 2.795 2.879 l 14.402 0 c 1.558 0 2.803 -1.324 2.803 -2.879 l 0 -24.24 c 0 -1.555 -1.245 -2.879 -2.803 -2.879 l -2.203 0 0 -2.01 c 0 -0.554 -0.446 -0.998 -1 -0.998 l -8 0 z m -3.199 5.01 14.402 0 c 0.437 0 0.803 0.35 0.803 0.879 l 0 24.24 c 0 0.529 -0.366 0.885 -0.803 0.885 l -14.402 0 c -0.437 0 -0.795 -0.355 -0.795 -0.885 l 0 -24.24 c 0 -0.529 0.358 -0.879 0.795 -0.879 z" transform="scale(0.28222223,0.28222223)" style="fill:#000;opacity:0.1;fill-opacity:1"/>
  <path d="m 5.08 10.724 3.951 0 0 -4.798 -3.951 2.822 z" style="fill:#000;opacity:0.1;fill-opacity:1"/>
  <path d="m 4.762 2.819 c -0.439 0 -0.811 0.373 -0.811 0.813 l 0 6.844 c 0 0.439 0.372 0.813 0.811 0.813 l 4.054 0 c 0.439 0 0.779 -0.373 0.779 -0.813 l 0 -6.844 c 0 -0.439 -0.34 -0.813 -0.779 -0.813 l -4.054 0 z m 0 0.563 4.054 0 c 0.123 0 0.219 0.1 0.219 0.25 l 0 6.844 c 0 0.15 -0.096 0.25 -0.219 0.25 l -4.054 0 c -0.123 0 -0.249 -0.1 -0.249 -0.25 l 0 -6.844 c 0 -0.15 0.127 -0.25 0.249 -0.25 z" style="visibility:visible;fill:#f9f9f9;fill-opacity:1;stroke:none;display:inline;color:#000"/>
  <rect width="2.822" height="1.16" x="5.362" y="1.975" rx="0.282" style="fill:#f9f9f9"/>
  <path d="m 4.798 10.442 3.951 0 0 -4.798 -3.951 2.822 z" style="fill:#e3e3d6"/>
 </g>
</svg>

<svg xmlns="http://www.w3.org/2000/svg" viewBox="0 0 48 48">
  <defs>
    <linearGradient id="a" x1="1" x2="47" gradientUnits="userSpaceOnUse" gradientTransform="rotate(-90 24 24)">
      <stop stop-color="#46baa7"/>
      <stop offset="1" stop-color="#55bfae"/>
    </linearGradient>
  </defs>
  <path d="M36.31 5c5.859 4.062 9.688 10.831 9.688 18.5 0 12.426-10.07 22.5-22.5 22.5-7.669 0-14.438-3.828-18.5-9.688a23.24 23.24 0 0 0 3.781 4.969 22.923 22.923 0 0 0 15.469 5.969c12.703 0 23-10.298 23-23a22.92 22.92 0 0 0-5.969-15.469A23.216 23.216 0 0 0 36.31 5zm4.969 3.781A22.911 22.911 0 0 1 47.498 24.5c0 12.703-10.297 23-23 23a22.909 22.909 0 0 1-15.719-6.219C12.939 45.425 18.662 48 24.998 48c12.703 0 23-10.298 23-23 0-6.335-2.575-12.06-6.719-16.219z" opacity=".05"/>
  <path d="M41.28 8.781a22.923 22.923 0 0 1 5.969 15.469c0 12.703-10.297 23-23 23A22.92 22.92 0 0 1 8.78 41.281 22.911 22.911 0 0 0 24.499 47.5c12.703 0 23-10.298 23-23A22.909 22.909 0 0 0 41.28 8.781z" opacity=".1"/>
  <path d="M31.25 2.375C39.865 5.529 46 13.792 46 23.505c0 12.426-10.07 22.5-22.5 22.5-9.708 0-17.971-6.135-21.12-14.75a23 23 0 0 0 44.875-7 23 23 0 0 0-16-21.875z" opacity=".2"/>
  <path d="M24 1c12.703 0 23 10.297 23 23S36.703 47 24 47 1 36.703 1 24 11.297 1 24 1z" fill="url(#a)"/>
  <g>
    <path d="M40.03 7.531A22.922 22.922 0 0 1 45.999 23c0 12.703-10.297 23-23 23A22.92 22.92 0 0 1 7.53 40.031C11.708 44.322 17.54 47 23.999 47c12.703 0 23-10.298 23-23 0-6.462-2.677-12.291-6.969-16.469z" opacity=".1"/>
  </g>
  <g transform="matrix(3.5433 0 0 3.5433 0 .002)">
    <path d="M5.926 2.257a.281.281 0 0 0-.282.282v.567h-.62c-.44 0-.79.374-.79.813v6.84c0 .44.35.813.79.813h4.064c.44 0 .79-.373.79-.812V3.919c0-.44-.35-.813-.79-.813h-.622V2.54a.281.281 0 0 0-.282-.282H5.926zm-.903 1.414h4.065c.123 0 .226.099.226.248v6.841c0 .15-.103.25-.226.25H5.023c-.123 0-.224-.1-.224-.25V3.92c0-.15.1-.249.224-.249z" opacity=".1"/>
    <path d="M5.08 10.724h3.951V5.926L5.08 8.748z" opacity=".1"/>
    <path d="M4.762 2.819a.824.824 0 0 0-.811.813v6.844c0 .439.372.813.811.813h4.054c.439 0 .779-.373.779-.813V3.632c0-.439-.34-.813-.779-.813H4.762zm0 .563h4.054c.123 0 .219.1.219.25v6.844c0 .15-.096.25-.219.25H4.762a.251.251 0 0 1-.249-.25V3.632c0-.15.127-.25.249-.25z" fill="#f9f9f9" color="#000"/>
    <rect width="2.822" height="1.16" x="5.362" y="1.975" rx=".282" fill="#f9f9f9"/>
    <path d="M4.798 10.442h3.951V5.644L4.798 8.466z" fill="#e3e3d6"/>
  </g>
</svg>
